X:1
T:Title
%%score { ( 1 3 ) | ( 2 4 ) }
L:1/8
Q:1/4=100
M:12/8
K:C
V:1 treble nm="Grand Piano"
V:3 treble 
V:2 bass 
V:4 bass 
V:1
 [Ec]2 [Ec] [FB]2 [FB] c2 [Gc] [EG]2 [EG] | [CFA]3 [^CGA]3 [DFA]6 | %2
w: Stanley~L.~Krebs * * * * * * *||
 [Fd]2 [Fd] [G^c]2 [Gc] [Ad]2 [Ad] [FA]2 [FA] | c3 B3 z6 | e2 e B2 B d2 c c2 B | %5
w: |||
 B2 _B ^c2 e d3 =c3 | B2 A B2 c d2 B G2 A | B3 [_EB]3 G,3- [G,FG]3 | %8
w: |||
 [Ec]2 [Ec] [EB]2 [EB] [EA]2 [EA] E2 E | F3 z3 B,3 z3 | [Ec]2 [Ec] B2 B A2 A E2 E | F3 F3 [G,F]6 | %12
w: ||||
 E2 F G2 A G2 F E2 [G,DG] | [CAc]3 [CGB]3 [CFA]6 | [CG]2 [CGc] [G^c]2 [Gc] [Ge]2 [Fd] [Af]2 [Ad] | %15
w: |||
 [Ge]3 [Fd]3 [Ec]6 |] %16
w: |
V:2
 [C,G,]2 [C,G,] [D,G,]2 [D,G,] [G,G]2 [E,G,] [C,C]2 [C,C] | F,2 G, F,2 E, D,6 | %2
 [D,A,]2 [D,A,] [E,A,]2 [E,A,] [F,A,]2 [F,A,] [D,D]2 [D,D] | .[G,DF]3 .[G,DF]3 [G,DF]6 | %4
 [^G,B,E]2 [G,B,E][K:bass] [E,G,E]2 [E,G,E] [A,E]2 [A,CE] [=G,E]2 [G,E] | %5
 E2 ^C [^F,_B,E]3[K:treble] [=B,^F]3 [A,A]3 | G,2 ^F, G,2 A, B,2 G, E,2 [C,A,] | %7
 [B,,B,]3 [B,,A,]3 E,3 D,3 | [C,G,]2 [C,G,] [G,,G,]2 [G,,G,] [C,E,]2 [C,E,] [E,G,C]2 [G,C] | %9
 .[D,G,C]3 z2 A, D,3 G,,3 | [C,G,]2 C,[K:treble] [G,E]2 [G,E] [CE]2 [CE] [G,C]2[K:bass] [G,C] | %11
 .[D,C]3 .[G,B,]3 z3 D3 | C,2 D, E,2 F, E,2 D, C,2 B,, | A,,3 E,3 F,6 | %14
 E,2 E, A,2 A, [D,A,]2 [D,A,] [D,A,]2 [F,A,] | [G,C]3 [G,B,]3 [C,G,C]6 |] %16
V:3
 x12 | x12 | x12 | z2 ^G, z2 ^F, B6 | x12 | x12 | x12 | z6 =E3 z3 | x12 | %9
 z2 C .[G,B,F]3 [G,F]3- [G,DF]3 | x12 | z2 C z2 A, B,3 z3 | x12 | x12 | x12 | x12 |] %16
V:4
 x12 | x12 | x12 | x12 | x3[K:bass] x9 | ^F,3 z3[K:treble] z6 | x12 | x12 | x12 | z3 G,,3 z6 | %10
 x3[K:treble] x8[K:bass] x | z6 G,,6 | x12 | x12 | x12 | x12 |] %16

